usr/share/icons/biglinux-icons-material/scalable/apps/goa-account-pocket.svg

<svg width="64" height="64" viewBox="0 0 16.933 16.933" xmlns="http://www.w3.org/2000/svg"><circle cx="8.466" cy="8.466" r="6.879" fill="#fff" fill-rule="evenodd" style="paint-order:normal"/><g stroke-width=".178"><path d="M4.95 5.612c-.4 0-.78.056-1.007.319-.35.4-.213 1.2-.213 1.686 0 .744-.051 1.534.1 2.268.163.784.735 1.635 1.378 2.167.466.384.966.658 1.544.881.567.198 1.109.288 1.676.293.521 0 1.043-.055 1.539-.212a5.306 5.306 0 0 0 1.437-.693c.44-.34.796-.674 1.08-1.099.202-.314.373-.654.5-1.002.313-.862.223-1.874.223-2.77 0-.405.106-1.134-.167-1.479-.41-.516-1.322-.333-2-.333H5.83c-.258 0-.572-.035-.88-.035zm5.77 2.208c.112 0 .224.03.346.1.273.163.359.558.166.8-.177.229-.44.41-.663.598l-1.15.997c-.252.229-.515.548-.89.582-.374.036-.623-.242-.865-.46L6.459 9.389c-.25-.202-.598-.43-.77-.694-.244-.37.04-.815.481-.87.284-.035.481.122.678.284l1.124.972c.116.1.308.363.47.384.183.026.462-.335.578-.436l.835-.718c.243-.218.526-.496.862-.496" fill="#ee4055"/><path d="m4.74 3.355 1.032-.592a6.364 6.364 0 0 1 2.667-.581v-.859c-.976.077-1.9.2-2.81.592-.231.1-.727.248-.86.473-.126.214-.03.72-.03.967z" fill="#51bbb7"/><path d="M8.44 1.323v.859a6.19 6.19 0 0 1 2.58.552l1.118.621c0-.247.106-.808-.029-1.015-.133-.205-.61-.346-.83-.44a7.299 7.299 0 0 0-2.84-.577z" fill="#ef4155"/><path d="M12.138 2.353c0 .275-.09.74.018.994.07.166.33.297.462.415.324.293.635.613.892.97.703.971 1.236 2.213 1.238 3.434.002 1.357-.278 2.63-1.035 3.78a6.33 6.33 0 0 1-.97 1.137c-.158.147-.502.332-.587.532-.105.247-.018.697-.018.965.808-.306 1.558-1.163 2.063-1.832 1.88-2.504 1.88-6.06 0-8.562-.505-.67-1.255-1.527-2.063-1.833z" fill="#fbb74b"/><path d="M4.711 2.382c-.903.609-1.68 1.312-2.274 2.233-1.607 2.492-1.454 5.799.32 8.16.508.676 1.206 1.41 1.983 1.776 0-.26.085-.697-.017-.936-.084-.193-.405-.351-.557-.497a6.81 6.81 0 0 1-1.001-1.173 6.374 6.374 0 0 1-1.032-3.923 6.304 6.304 0 0 1 1.414-3.521l.705-.736.458-.395c.103-.167.076-.81 0-.988z" fill="#83edb9"/><path d="M4.74 13.606c0 .241-.094.73.03.94.132.225.628.372.86.472.909.391 1.832.516 2.81.592v-.83a6.242 6.242 0 0 1-2.754-.623c-.282-.138-.664-.3-.86-.55z" fill="#51bbb7"/><path d="M8.44 14.78v.83c.963 0 1.952-.197 2.839-.577.22-.093.697-.234.83-.44.132-.203.03-.746.03-.987l-1.119.621a6.19 6.19 0 0 1-2.58.553m4.96-1.174.03.028z" fill="#ef4155"/></g></svg>

<?xml version="1.0" encoding="UTF-8" standalone="no"?>
<svg
   width="24"
   height="24"
   viewBox="0 0 24 24"
   fill="none"
   version="1.1"
   id="svg154"
   sodipodi:docname="goa-account-pocket.svg"
   inkscape:version="1.2.2 (b0a8486541, 2022-12-01)"
   xml:space="preserve"
   xmlns:inkscape="http://www.inkscape.org/namespaces/inkscape"
   xmlns:sodipodi="http://sodipodi.sourceforge.net/DTD/sodipodi-0.dtd"
   xmlns:xlink="http://www.w3.org/1999/xlink"
   xmlns="http://www.w3.org/2000/svg"
   xmlns:svg="http://www.w3.org/2000/svg"
   xmlns:sketch="http://www.bohemiancoding.com/sketch/ns"><sodipodi:namedview
     id="namedview156"
     pagecolor="#ffffff"
     bordercolor="#000000"
     borderopacity="1"
     inkscape:showpageshadow="0"
     inkscape:pageopacity="1"
     inkscape:pagecheckerboard="false"
     inkscape:deskcolor="#ffffff"
     showgrid="true"
     inkscape:zoom="16"
     inkscape:cx="-11.875"
     inkscape:cy="7.03125"
     inkscape:window-width="1920"
     inkscape:window-height="1052"
     inkscape:window-x="0"
     inkscape:window-y="0"
     inkscape:window-maximized="1"
     inkscape:current-layer="svg154"
     showguides="true"
     guidecolor="#ff0000"
     guideopacity="1"
     inkscape:lockguides="true"
     showborder="true"
     borderlayer="true"><inkscape:grid
       type="xygrid"
       id="grid356"
       color="#000000"
       opacity="0.10196078"
       empcolor="#000000"
       empopacity="0.10196078"
       snapvisiblegridlinesonly="true"
       enabled="true"
       visible="true"
       dotted="false" /><sodipodi:guide
       position="4.003125,23.042969"
       orientation="1,0"
       id="guide764"
       inkscape:locked="true" /><sodipodi:guide
       position="5.0007813,21.049219"
       orientation="1,0"
       id="guide2218"
       inkscape:locked="true" /><sodipodi:guide
       position="3.6445312,20"
       orientation="0,-1"
       id="guide2220"
       inkscape:locked="true" /><sodipodi:guide
       position="3.796875,5"
       orientation="0,-1"
       id="guide2222"
       inkscape:locked="true" /><sodipodi:guide
       position="3.625,4"
       orientation="0,-1"
       id="guide2224"
       inkscape:locked="true" /><sodipodi:guide
       position="19,4.8984375"
       orientation="1,0"
       id="guide2226"
       inkscape:locked="true" /><sodipodi:guide
       position="20,3.3312502"
       orientation="1,0"
       id="guide2228"
       inkscape:locked="true" /><sodipodi:guide
       position="22.875,19"
       orientation="0,-1"
       id="guide2230"
       inkscape:locked="true" /></sodipodi:namedview><defs
     id="defs152"><radialGradient
       id="radialGradient1281"
       cx="0"
       cy="0"
       r="1"
       gradientUnits="userSpaceOnUse"
       gradientTransform="translate(12 1) rotate(90) scale(22)"><stop
         stop-color="#8FC8FF"
         id="stop1277"
         offset="0.00424011"
         style="stop-color:#ffffff;stop-opacity:1;" /><stop
         offset="0.99151897"
         stop-color="#0056A8"
         id="stop1279"
         style="stop-color:#ffffff;stop-opacity:1;" /></radialGradient><radialGradient
       id="paint0_radial_29_23"
       cx="0"
       cy="0"
       r="1"
       gradientUnits="userSpaceOnUse"
       gradientTransform="translate(12 1) rotate(90) scale(22)"><stop
         stop-color="#8FC8FF"
         id="stop147"
         offset="0"
         style="stop-color:#f6f6f6;stop-opacity:1;" /><stop
         offset="1"
         stop-color="#0056A8"
         id="stop149"
         style="stop-color:#cfcfcf;stop-opacity:1;" /></radialGradient><radialGradient
       id="paint0_radial_10_2"
       cx="0"
       cy="0"
       r="1"
       gradientUnits="userSpaceOnUse"
       gradientTransform="matrix(-10.999959,21.999967,-21.999967,-10.999959,17.5,1)"
       xlink:href="#paint0_radial_29_23"><stop
         stop-color="#777777"
         id="stop2847" /><stop
         offset="1"
         stop-color="#222222"
         id="stop2849" /></radialGradient><linearGradient
       x1="12"
       y1="1"
       x2="12"
       y2="23"
       gradientUnits="userSpaceOnUse"
       gradientTransform="matrix(0.75,0,0,0.75,-7.98374e-6,2.65834e-5)"
       spreadMethod="pad"
       id="linearGradient44915"><stop
         style="stop-opacity:1;stop-color:#ff5f5f"
         offset="0"
         id="stop44911" /><stop
         style="stop-opacity:1;stop-color:#e82e34"
         offset="1"
         id="stop44913" /></linearGradient><radialGradient
       id="SVGID_1_"
       cx="85.226997"
       cy="71.662003"
       r="47.776001"
       gradientTransform="matrix(1,0,0,-1,0,103.8)"
       gradientUnits="userSpaceOnUse"><stop
         offset="0"
         stop-color="#00aeff"
         id="stop12" /><stop
         offset=".131"
         stop-color="#00a5f7"
         id="stop14" /><stop
         offset=".345"
         stop-color="#008de0"
         id="stop16" /><stop
         offset=".616"
         stop-color="#0065ba"
         id="stop18" /><stop
         offset=".928"
         stop-color="#002f87"
         id="stop20" /><stop
         offset="1"
         stop-color="#00217a"
         id="stop22" /></radialGradient><linearGradient
       id="SVGID_3_"
       gradientUnits="userSpaceOnUse"
       x1="92.800003"
       y1="72.949997"
       x2="130.763"
       y2="72.949997"
       gradientTransform="matrix(1,0,0,-1,0,103.8)"><stop
         offset="0"
         stop-color="#FFF"
         id="stop29" /><stop
         offset="1"
         stop-color="#FFF"
         stop-opacity="0"
         id="stop31" /></linearGradient><radialGradient
       id="SVGID_4_"
       cx="83.728996"
       cy="73.999001"
       r="8.2860003"
       gradientTransform="matrix(1,0,0,-1,0,103.8)"
       gradientUnits="userSpaceOnUse"><stop
         offset="0"
         stop-color="#FFF"
         id="stop36" /><stop
         offset=".679"
         stop-color="#7a7a7a"
         id="stop38" /><stop
         offset="1"
         stop-color="#404040"
         id="stop40" /></radialGradient><radialGradient
       fx="0"
       fy="0"
       cx="0"
       cy="0"
       r="1"
       gradientUnits="userSpaceOnUse"
       gradientTransform="matrix(0,16.5,-16.5,0,8.999996,0.750012)"
       spreadMethod="pad"
       id="radialGradient3666-6"><stop
         style="stop-color:#ffffff;stop-opacity:1;"
         offset="0"
         id="stop3662-7" /><stop
         style="stop-color:#f7da4d;stop-opacity:1;"
         offset="1"
         id="stop3664-5" /></radialGradient><clipPath
       id="a"><path
         d="M 0,0.113 H 91.887 V 92 H 0 Z m 0,0"
         id="path76179" /></clipPath><clipPath
       id="a-3"><path
         d="M 0,0.113 H 91.887 V 92 H 0 Z m 0,0"
         id="path76179-5" /></clipPath></defs><path
     d="M 50,5 C 9.0909092,5 5,25.454546 5,50 5,82.727274 17.272728,95 50,95 82.727274,95 95,82.727274 95,50 95,25.454546 90.909093,5 50,5 Z"
     sketch:type="MSShapeGroup"
     id="path6"
     style="font-variation-settings:normal;display:inline;opacity:1;vector-effect:none;fill:#ee4055;fill-opacity:1;stroke-width:4.56656;stroke-linecap:butt;stroke-linejoin:miter;stroke-miterlimit:4;stroke-dasharray:none;stroke-dashoffset:0;stroke-opacity:1;-inkscape-stroke:none;stop-color:#000000;stop-opacity:1"
     sodipodi:nodetypes="sssss"
     inkscape:label="Shape"
     transform="matrix(0.24444444,0,0,0.24444444,-0.22222222,-0.22222222)"
     sodipodi:insensitive="true" /><g
     inkscape:groupmode="layer"
     id="layer4"
     inkscape:label="Colors References"
     style="display:inline"
     sodipodi:insensitive="true"
     inkscape:highlight-color="#cc5ecc"><rect
       style="display:inline;fill:#3947be;fill-opacity:1;stroke-width:22.6872;paint-order:markers stroke fill"
       id="rect7816"
       width="1.9999923"
       height="2"
       x="12"
       y="-2.9999964"
       rx="0"
       ry="0"
       inkscape:label="Dark Blue" /><rect
       style="display:inline;fill:#6c7ad8;fill-opacity:1;stroke-width:22.6873;paint-order:markers stroke fill"
       id="rect7820"
       width="2"
       height="2.0000076"
       x="9"
       y="-3.0000041"
       rx="0"
       ry="0"
       inkscape:label="Blue" /><rect
       style="display:inline;fill:#33cc33;fill-opacity:1;stroke-width:22.6873;paint-order:markers stroke fill"
       id="rect7814"
       width="2"
       height="2.0000076"
       x="6"
       y="-3.0000041"
       rx="0"
       ry="0"
       inkscape:label="Green" /><rect
       style="display:inline;fill:#ffc328;fill-opacity:1;stroke-width:22.6872;paint-order:markers stroke fill"
       id="rect7824"
       width="1.9999926"
       height="2.0000002"
       x="3"
       y="-2.9999964"
       rx="0"
       ry="0"
       inkscape:label="Yellow" /><rect
       style="display:inline;fill:#cc5e55;fill-opacity:1;stroke-width:22.6873;paint-order:markers stroke fill"
       id="rect7822"
       width="2"
       height="2.0000076"
       x="0"
       y="-3.0000038"
       rx="0"
       ry="0"
       inkscape:label="Red" /><rect
       style="display:inline;fill:#0bb1cb;fill-opacity:1;stroke-width:22.6872;paint-order:markers stroke fill"
       id="rect3087"
       width="1.9999919"
       height="1.9999996"
       x="-3"
       y="12.000004"
       rx="0"
       ry="0"
       inkscape:label="Blue 4" /><rect
       style="display:inline;fill:#2a92c9;fill-opacity:1;stroke-width:22.6873;paint-order:markers stroke fill"
       id="rect3085"
       width="2"
       height="2.0000079"
       x="-3"
       y="8.9999962"
       rx="0"
       ry="0"
       inkscape:label="Blue 3" /><rect
       style="display:inline;fill:#006699;fill-opacity:1;stroke-width:22.6873;paint-order:markers stroke fill"
       id="rect3089"
       width="2"
       height="2.0000076"
       x="-3"
       y="6.0000038"
       rx="0"
       ry="0"
       inkscape:label="Blue 2" /><rect
       style="display:inline;fill:#002a44;fill-opacity:1;stroke-width:22.6873;paint-order:markers stroke fill"
       id="rect3083"
       width="2"
       height="2.0000076"
       x="-3"
       y="2.9999962"
       rx="0"
       ry="0"
       inkscape:label="Blue 1" /><rect
       style="display:inline;fill:#2c2d3d;fill-opacity:1;stroke-width:22.6873;paint-order:markers stroke fill"
       id="rect3456"
       width="2"
       height="2.0000076"
       x="-3"
       y="-3.8146973e-06"
       rx="0"
       ry="0"
       inkscape:label="Gray" /><rect
       style="display:inline;fill:#16171c;fill-opacity:1;stroke-width:22.6872;paint-order:markers stroke fill"
       id="rect3091"
       width="1.9999924"
       height="2"
       x="-3"
       y="-3"
       rx="0"
       ry="0"
       inkscape:label="Black" /></g><g
     id="g110301"
     transform="matrix(0.29623184,0,0,0.29623184,15.519617,9.9189824)"><circle
       cx="-11.878644"
       cy="7.0293589"
       r="25.999884"
       fill="#ffffff"
       fill-rule="evenodd"
       style="stroke-width:3.7796;paint-order:normal"
       id="circle109700" /><g
       stroke-width="0.178"
       id="g109716"
       transform="matrix(3.779602,0,0,3.779602,-43.876753,-24.96875)"><path
         d="m 4.95,5.612 c -0.4,0 -0.78,0.056 -1.007,0.319 -0.35,0.4 -0.213,1.2 -0.213,1.686 0,0.744 -0.051,1.534 0.1,2.268 0.163,0.784 0.735,1.635 1.378,2.167 0.466,0.384 0.966,0.658 1.544,0.881 0.567,0.198 1.109,0.288 1.676,0.293 0.521,0 1.043,-0.055 1.539,-0.212 a 5.306,5.306 0 0 0 1.437,-0.693 c 0.44,-0.34 0.796,-0.674 1.08,-1.099 0.202,-0.314 0.373,-0.654 0.5,-1.002 0.313,-0.862 0.223,-1.874 0.223,-2.77 0,-0.405 0.106,-1.134 -0.167,-1.479 -0.41,-0.516 -1.322,-0.333 -2,-0.333 H 5.83 C 5.572,5.638 5.258,5.603 4.95,5.603 Z m 5.77,2.208 c 0.112,0 0.224,0.03 0.346,0.1 0.273,0.163 0.359,0.558 0.166,0.8 -0.177,0.229 -0.44,0.41 -0.663,0.598 l -1.15,0.997 C 9.167,10.544 8.904,10.863 8.529,10.897 8.155,10.933 7.906,10.655 7.664,10.437 L 6.459,9.389 C 6.209,9.187 5.861,8.959 5.689,8.695 5.445,8.325 5.729,7.88 6.17,7.825 6.454,7.79 6.651,7.947 6.848,8.109 L 7.972,9.081 C 8.088,9.181 8.28,9.444 8.442,9.465 8.625,9.491 8.904,9.13 9.02,9.029 L 9.855,8.311 c 0.243,-0.218 0.526,-0.496 0.862,-0.496"
         fill="#ee4055"
         id="path109702" /><path
         d="M 4.74,3.355 5.772,2.763 A 6.364,6.364 0 0 1 8.439,2.182 V 1.323 c -0.976,0.077 -1.9,0.2 -2.81,0.592 -0.231,0.1 -0.727,0.248 -0.86,0.473 -0.126,0.214 -0.03,0.72 -0.03,0.967 z"
         fill="#51bbb7"
         id="path109704" /><path
         d="m 8.44,1.323 v 0.859 a 6.19,6.19 0 0 1 2.58,0.552 l 1.118,0.621 C 12.138,3.108 12.244,2.547 12.109,2.34 11.976,2.135 11.499,1.994 11.279,1.9 A 7.299,7.299 0 0 0 8.439,1.323 Z"
         fill="#ef4155"
         id="path109706" /><path
         d="m 12.138,2.353 c 0,0.275 -0.09,0.74 0.018,0.994 0.07,0.166 0.33,0.297 0.462,0.415 0.324,0.293 0.635,0.613 0.892,0.97 0.703,0.971 1.236,2.213 1.238,3.434 0.002,1.357 -0.278,2.63 -1.035,3.78 a 6.33,6.33 0 0 1 -0.97,1.137 c -0.158,0.147 -0.502,0.332 -0.587,0.532 -0.105,0.247 -0.018,0.697 -0.018,0.965 0.808,-0.306 1.558,-1.163 2.063,-1.832 1.88,-2.504 1.88,-6.06 0,-8.562 -0.505,-0.67 -1.255,-1.527 -2.063,-1.833 z"
         fill="#fbb74b"
         id="path109708" /><path
         d="m 4.711,2.382 c -0.903,0.609 -1.68,1.312 -2.274,2.233 -1.607,2.492 -1.454,5.799 0.32,8.16 0.508,0.676 1.206,1.41 1.983,1.776 0,-0.26 0.085,-0.697 -0.017,-0.936 C 4.639,13.422 4.318,13.264 4.166,13.118 A 6.81,6.81 0 0 1 3.165,11.945 6.374,6.374 0 0 1 2.133,8.022 6.304,6.304 0 0 1 3.547,4.501 L 4.252,3.765 4.71,3.37 c 0.103,-0.167 0.076,-0.81 0,-0.988 z"
         fill="#83edb9"
         id="path109710" /><path
         d="m 4.74,13.606 c 0,0.241 -0.094,0.73 0.03,0.94 0.132,0.225 0.628,0.372 0.86,0.472 0.909,0.391 1.832,0.516 2.81,0.592 V 14.78 A 6.242,6.242 0 0 1 5.686,14.157 c -0.282,-0.138 -0.664,-0.3 -0.86,-0.55 z"
         fill="#51bbb7"
         id="path109712" /><path
         d="m 8.44,14.78 v 0.83 c 0.963,0 1.952,-0.197 2.839,-0.577 0.22,-0.093 0.697,-0.234 0.83,-0.44 0.132,-0.203 0.03,-0.746 0.03,-0.987 L 11.02,14.227 A 6.19,6.19 0 0 1 8.44,14.78 m 4.96,-1.174 0.03,0.028 z"
         fill="#ef4155"
         id="path109714" /></g></g></svg>
